src/topics/icons/astronomer.svg

<svg height="271" preserveAspectRatio="xMidYMid" viewBox="0 0 256 271" width="256" xmlns="http://www.w3.org/2000/svg" xmlns:xlink="http://www.w3.org/1999/xlink"><linearGradient id="a" x1=".012%" x2="100%" y1="50.028%" y2="50.028%"><stop offset="0" stop-color="#f4362c"/><stop offset=".787" stop-color="#ff9a09"/></linearGradient><path d="m192 28.2216867c3.315663 2.6987952 8.713253 2.6987952 12.028916.0771085l8.790361-7.0168675c3.315663-2.6216867 3.778313-2.1590361 1.079518 1.0795181l-7.248193 8.5590361c-2.698795 3.2385542-2.775903 8.6361446-.077108 11.8746988l7.016867 8.5590362c2.698796 3.3156626 2.159037 3.7783132-1.079518 1.079518l-8.559036-6.939759c-3.315662-2.6987952-8.713253-2.7759036-12.106024-.1542169l-10.718072 8.173494c-3.392771 2.5445783-3.778313 2.1590362-.925301-1.0024096l8.713253-9.5614458c2.853012-3.1614458 3.007229-8.4048193.385542-11.7204819l-7.093976-8.8674699c-2.621687-3.3156627-2.159036-3.8554217 1.156626-1.1566265z" fill="#f48e06"/><path d="m186.60241 34.5445783c4.240963-.2313253 8.019277-3.9325301 8.404819-8.0963855l2.159036-22.97831328c.385542-4.24096386 1.079518-4.24096386 1.542169 0l2.544578 22.97831328c.462651 4.2409638 4.318072 8.0192771 8.481928 8.4819277l18.968674 1.9277108c4.240964.4626506 4.240964 1.0795181 0 1.3879518l-18.968674 1.4650603c-4.240964.3084337-8.019277 4.0096385-8.40482 8.2506024l-2.698795 27.5277108c-.385542 4.2409639-1.079518 4.2409639-1.46506 0l-2.544578-27.1421686c-.385542-4.2409639-4.163856-7.9421687-8.40482-8.2506025l-32.154216-2.5445783c-4.240964-.3084337-4.240964-.8481927 0-1.079518z" fill="#f48e06"/><circle cx="101.628916" cy="16.809639" fill="#302c43" r="10.255422"/><path d="m37.860241 81.8120482c-3.007229-.0771084-10.486747-.6939759-14.1108434-4.3180723-3.7012048-3.7012048-4.3951807-11.1807229-4.4722892-14.2650602-.1542168 3.0843373-.8481927 10.6409638-4.4722891 14.2650602-3.7012048 3.7012048-11.10361448 4.2409639-14.1108434 4.3180723 3.00722892.0771084 10.4096386.6939759 14.1108434 4.3180723 3.7012048 3.7012048 4.3951807 11.1807229 4.4722891 14.2650605.1542169-3.0843376.8481928-10.6409641 4.4722892-14.2650605 3.6240964-3.546988 11.1036144-4.1638554 14.1108434-4.3180723 0 .0771084 0 .0771084 0 0" fill="#00ac6b"/><path d="m187.450602 242.120482c-4.626506-.154217-15.961445-1.079518-21.513253-6.631325-5.628915-5.628916-6.631325-17.118073-6.86265-21.744579h-.154217c-.154217 4.703615-1.233735 16.192771-6.862651 21.744579-5.551807 5.551807-16.886747 6.477108-21.513253 6.631325 4.626506.154217 15.884338 1.00241 21.513253 6.631325 5.628916 5.628916 6.631326 17.118073 6.862651 21.744579h.154217c.154217-4.703615 1.233735-16.192772 6.86265-21.744579 5.551808-5.551807 16.886747-6.4 21.513253-6.631325-.077108.077108 0 .077108 0 0" fill="#09a6d1"/><circle cx="250.139759" cy="184.289157" fill="#f4362c" r="5.39759"/><circle cx="29.686747" cy="216.366265" fill="#a39a8b" r="5.39759"/><path d="m65.5421687 180.587952c.6939759 1.310843 2.0048193 2.159036 3.4698795 2.159036h19.4313253c2.4674699 0 4.2409638-2.236145 4.8578313-3.392771l10.8722892-20.896386c.154217-.385542.848193-.771084 1.156626-.771084h51.431326c.308434 0 .925301.385542 1.156626.771084l10.872289 20.896386c.616868 1.156626 2.390362 3.392771 4.857832 3.392771h19.431325c1.46506 0 2.775904-.848193 3.46988-2.159036.693975-1.310844.693975-2.930121-.077109-4.163856l-52.896385-95.9999996c-.693976-1.3108434-2.00482-2.0819277-3.392771-2.0819277h-18.274699c-1.387952 0-2.698795.7710843-3.392771 2.0819277l-52.8963859 95.9999996c-.6939759 1.233735-.7710843 2.853012-.0771084 4.163856zm52.2795183-48.346988 13.26265-25.445783 13.262651 25.445783c.154217.231325.231325.616867.231325.771084-.077108 0-.154217.077109-.385542.077109h-26.139759c-.231325 0-.385542 0-.385542-.077109-.077109-.154217.077108-.539759.154217-.771084z" fill="#302c43"/><path d="m208.655422 118.978313c.231325-.616867.925301-1.156626 1.696385-1.310843l16.501205-2.544578c.693976-.077109 1.310843.154216 1.542169.616867.231325.462651.077108 1.079518-.462651 1.542169l-12.260241 11.257831c-.616867.539759-1.46506.771084-2.081928.539759-.616867-.231325-.925301-.771084-.693975-1.46506.077108-.154217.077108-.308434.154216-.462651.385543-1.387952.308434-2.775903-.308433-4.009638-.616868-1.233735-1.696386-2.236145-3.161446-2.775904-.077109 0-.154217-.077108-.231325-.077108-.308434-.077109-.539759-.308434-.693976-.539759-.077109-.154217-.077109-.462651 0-.771085z" fill="#a39a8b"/><path d="m38.939759 142.110843c6.3228916-18.506024 50.660241-34.621686 50.660241-34.621686.1542169-.077109.3084337-.077109.3855422-.077109.6939759 0 1.3108433.616868 1.3108433 1.310844 0 .539759-.3084337.925301-.7710843 1.156626-7.2481928 3.546988-39.6337349 19.893976-43.026506 32.385542-.5397591 1.46506-.6168675 2.853012.0771084 4.163856 2.7759036 5.166265 17.0409639 7.325301 38.2457831 5.706024 19.8939763-1.542169 44.2602413-4.318073 74.1783133-13.493976 13.879518-4.240964 27.142169-9.021687 39.479518-14.26506l.385542-.154217 1.619277-.616868c.539759-.231325 1.079518-.308433 1.696386-.308433 2.544578 0 4.626506 2.004819 4.703614 4.549397 0 .231325.077109.539759.077109.771084-.077109 1.619278-1.233735 3.007229-2.930121 3.701205l-1.310843.539759c-12.414458 5.166265-25.368675 9.792771-39.479518 14.187952-26.679518 8.173494-51.354217 12.645783-80.1927712 14.419277-3.8554217.231326-7.4795181.385542-10.8722892.385542-2.4674699 0-4.8578313-.077108-7.0939759-.154216-.9253012-.077109-1.773494-.077109-2.6987952-.154217-7.8650602-.771085-29.686747-4.163856-24.4433735-19.431326z" fill="url(#a)"/></svg>

<?xml version="1.0" encoding="UTF-8"?>
<svg width="256px" height="271px" viewBox="0 0 256 271" version="1.1" xmlns="http://www.w3.org/2000/svg" xmlns:xlink="http://www.w3.org/1999/xlink" preserveAspectRatio="xMidYMid">
    <defs>
        <linearGradient x1="0.012%" y1="50.028%" x2="100%" y2="50.028%" id="linearGradient-1">
            <stop stop-color="#F4362C" offset="0%"></stop>
            <stop stop-color="#FF9A09" offset="78.7%"></stop>
        </linearGradient>
    </defs>
		<g>
				<path d="M192,28.2216867 C195.315663,30.9204819 200.713253,30.9204819 204.028916,28.2987952 L212.819277,21.2819277 C216.13494,18.660241 216.59759,19.1228916 213.898795,22.3614458 L206.650602,30.9204819 C203.951807,34.1590361 203.874699,39.5566265 206.573494,42.7951807 L213.590361,51.3542169 C216.289157,54.6698795 215.749398,55.1325301 212.510843,52.4337349 L203.951807,45.4939759 C200.636145,42.7951807 195.238554,42.7180723 191.845783,45.339759 L181.127711,53.513253 C177.73494,56.0578313 177.349398,55.6722892 180.20241,52.5108434 L188.915663,42.9493976 C191.768675,39.7879518 191.922892,34.5445783 189.301205,31.2289157 L182.207229,22.3614458 C179.585542,19.0457831 180.048193,18.5060241 183.363855,21.2048193 L192,28.2216867 Z" fill="#F48E06"></path>
				<path d="M186.60241,34.5445783 C190.843373,34.313253 194.621687,30.6120482 195.007229,26.4481928 L197.166265,3.46987952 C197.551807,-0.771084337 198.245783,-0.771084337 198.708434,3.46987952 L201.253012,26.4481928 C201.715663,30.6891566 205.571084,34.4674699 209.73494,34.9301205 L228.703614,36.8578313 C232.944578,37.3204819 232.944578,37.9373494 228.703614,38.2457831 L209.73494,39.7108434 C205.493976,40.0192771 201.715663,43.7204819 201.33012,47.9614458 L198.631325,75.4891566 C198.245783,79.7301205 197.551807,79.7301205 197.166265,75.4891566 L194.621687,48.346988 C194.236145,44.1060241 190.457831,40.4048193 186.216867,40.0963855 L154.062651,37.5518072 C149.821687,37.2433735 149.821687,36.7036145 154.062651,36.4722892 L186.60241,34.5445783 Z" fill="#F48E06"></path>
				<circle fill="#302C43" cx="101.628916" cy="16.8096386" r="10.2554217"></circle>
				<path d="M37.860241,81.8120482 C34.853012,81.7349398 27.373494,81.1180723 23.7493976,77.4939759 C20.0481928,73.7927711 19.3542169,66.313253 19.2771084,63.2289157 C19.1228916,66.313253 18.4289157,73.8698795 14.8048193,77.4939759 C11.1036145,81.1951807 3.70120482,81.7349398 0.693975904,81.8120482 C3.70120482,81.8891566 11.1036145,82.5060241 14.8048193,86.1301205 C18.5060241,89.8313253 19.2,97.3108434 19.2771084,100.395181 C19.4313253,97.3108434 20.1253012,89.7542169 23.7493976,86.1301205 C27.373494,82.5831325 34.853012,81.9662651 37.860241,81.8120482 C37.860241,81.8891566 37.860241,81.8891566 37.860241,81.8120482" fill="#00AC6B"></path>
				<path d="M187.450602,242.120482 C182.824096,241.966265 171.489157,241.040964 165.937349,235.489157 C160.308434,229.860241 159.306024,218.371084 159.074699,213.744578 L158.920482,213.744578 C158.766265,218.448193 157.686747,229.937349 152.057831,235.489157 C146.506024,241.040964 135.171084,241.966265 130.544578,242.120482 C135.171084,242.274699 146.428916,243.122892 152.057831,248.751807 C157.686747,254.380723 158.689157,265.86988 158.920482,270.496386 L159.074699,270.496386 C159.228916,265.792771 160.308434,254.303614 165.937349,248.751807 C171.489157,243.2 182.824096,242.351807 187.450602,242.120482 C187.373494,242.19759 187.450602,242.19759 187.450602,242.120482" fill="#09A6D1"></path>
				<circle fill="#F4362C" cx="250.139759" cy="184.289157" r="5.39759036"></circle>
				<circle fill="#A39A8B" cx="29.686747" cy="216.366265" r="5.39759036"></circle>
				<path d="M65.5421687,180.587952 C66.2361446,181.898795 67.546988,182.746988 69.0120482,182.746988 L88.4433735,182.746988 C90.9108434,182.746988 92.6843373,180.510843 93.3012048,179.354217 L104.173494,158.457831 C104.327711,158.072289 105.021687,157.686747 105.33012,157.686747 L156.761446,157.686747 C157.06988,157.686747 157.686747,158.072289 157.918072,158.457831 L168.790361,179.354217 C169.407229,180.510843 171.180723,182.746988 173.648193,182.746988 L193.079518,182.746988 C194.544578,182.746988 195.855422,181.898795 196.549398,180.587952 C197.243373,179.277108 197.243373,177.657831 196.472289,176.424096 L143.575904,80.4240964 C142.881928,79.113253 141.571084,78.3421687 140.183133,78.3421687 L121.908434,78.3421687 C120.520482,78.3421687 119.209639,79.113253 118.515663,80.4240964 L65.6192771,176.424096 C64.9253012,177.657831 64.8481928,179.277108 65.5421687,180.587952 Z M117.821687,132.240964 L131.084337,106.795181 L144.346988,132.240964 C144.501205,132.472289 144.578313,132.857831 144.578313,133.012048 C144.501205,133.012048 144.424096,133.089157 144.192771,133.089157 L118.053012,133.089157 C117.821687,133.089157 117.66747,133.089157 117.66747,133.012048 C117.590361,132.857831 117.744578,132.472289 117.821687,132.240964 Z" fill="#302C43"></path>
				<path d="M208.655422,118.978313 C208.886747,118.361446 209.580723,117.821687 210.351807,117.66747 L226.853012,115.122892 C227.546988,115.045783 228.163855,115.277108 228.395181,115.739759 C228.626506,116.20241 228.472289,116.819277 227.93253,117.281928 L215.672289,128.539759 C215.055422,129.079518 214.207229,129.310843 213.590361,129.079518 C212.973494,128.848193 212.66506,128.308434 212.896386,127.614458 C212.973494,127.460241 212.973494,127.306024 213.050602,127.151807 C213.436145,125.763855 213.359036,124.375904 212.742169,123.142169 C212.125301,121.908434 211.045783,120.906024 209.580723,120.366265 C209.503614,120.366265 209.426506,120.289157 209.349398,120.289157 C209.040964,120.212048 208.809639,119.980723 208.655422,119.749398 C208.578313,119.595181 208.578313,119.286747 208.655422,118.978313 Z" fill="#A39A8B"></path>
				<path d="M38.939759,142.110843 C45.2626506,123.604819 89.6,107.489157 89.6,107.489157 C89.7542169,107.412048 89.9084337,107.412048 89.9855422,107.412048 C90.6795181,107.412048 91.2963855,108.028916 91.2963855,108.722892 C91.2963855,109.262651 90.9879518,109.648193 90.5253012,109.879518 C83.2771084,113.426506 50.8915663,129.773494 47.4987952,142.26506 C46.9590361,143.73012 46.8819277,145.118072 47.5759036,146.428916 C50.3518072,151.595181 64.6168675,153.754217 85.8216867,152.13494 C105.715663,150.592771 130.081928,147.816867 160,138.640964 C173.879518,134.4 187.142169,129.619277 199.479518,124.375904 L199.86506,124.221687 L201.484337,123.604819 C202.024096,123.373494 202.563855,123.296386 203.180723,123.296386 C205.725301,123.296386 207.807229,125.301205 207.884337,127.845783 C207.884337,128.077108 207.961446,128.385542 207.961446,128.616867 C207.884337,130.236145 206.727711,131.624096 205.031325,132.318072 L203.720482,132.857831 C191.306024,138.024096 178.351807,142.650602 164.240964,147.045783 C137.561446,155.219277 112.886747,159.691566 84.0481928,161.46506 C80.1927711,161.696386 76.5686747,161.850602 73.1759036,161.850602 C70.7084337,161.850602 68.3180723,161.773494 66.0819277,161.696386 C65.1566265,161.619277 64.3084337,161.619277 63.3831325,161.542169 C55.5180723,160.771084 33.6963855,157.378313 38.939759,142.110843 Z" fill="url(#linearGradient-1)"></path>
		</g>
</svg>
